X: 1
T: The Tram Road
R: jig
M: 6/8
L: 1/8
K: Bdor
|:BBB fBf|aea fec|ABA cBc|efe cBA|
BBB fBf|aea fec|BBB aBg|ecA B3:|
|:BfB aBg|Bff ecA|Ace Ace|fff ecA|
BfB aBg|Bff ecA|aea fec|ecA B3:|

